X:1
T:Title
L:1/8
M:4/4
K:Db
V:1 treble nm="Grand Piano"
V:1
 z4 z[Q:1/4=100] FFE | D4- DDDC | B,4- B,BBA | G2 G2- GABG | F4- FFGF | E4- EEFE | D4- DDED | %7
 C4- CCDC | B,4- B,ddc | B4- Bddc | B4- BccB | =A4- Addc | B4- BFGF | E4- EEFE | D4- DDED | %15
 C2 C2- CCDC | B,6 z2 |] %17

